X:43
T:Too Young to Marry
M:C
L:1/8
R:Reel
N:Bob Carlin & Judy Hyman, Banging & Sawing
N:Rounder 0197
N:Transcribed by Bruce Thomson
K:D
|:â€Dâ€aAbA aAeg|fd3d2fg|aAbA aAga|â€Gâ€bgbg â€œAâ€e2fg|
â€œDâ€aAbA aAeg|fd3d2ef|â€Aâ€gfed cABc|1â€³Dâ€d3dd2fg:|2â€³Dâ€d3dd2(3ABc|:
â€œDâ€dBAG FEDF|â€Gâ€GABcd2Bc|â€Dâ€dBAG FEDF|â€Aâ€E3EE2Bc|
â€œDâ€dBAG FEDF|â€Gâ€GABc dedB|â€Aâ€ABcd egfe|â€Dâ€d3dd4:|

